X:136
T:Swiss Waltz, A. CJF.136
R:Waltz
S:C.J.Fox MS, 1829/33, Beverley,E.Yorks.
N:The asterisked triplet is not given as a triplet in the MS. – PJH
B:Kidson Coll.Mitchell Lib.M1805
O:England
A:East Yorkshire
Z:vmp.P J Headford 2000 & 2008
M:3/8
L:1/16
Q:1/8=120
K:D
((3ABA)|f4e2|d4((3ABA)|g4f2|e4((3ABA)|\
” cres”.d2.f2 ((3ABA)|.e2.g2 ((3ABA)|(a2g2).e2|d4:|!
|:((3ABA)|g4f2|e4((3ABA)|”p”=f4e2|d4((3ABA)|\
a2f2 ((3ABA)|” f”.b2.g2 “*”(3efe|(a2g2).e2|d4:|!
|:A2|” f”(DF).A.d(fa)|(DF).A.d(fa)|\
(gf).g.f(ed)|(cB).A.G(FE)|\
(DF).A.d(fa)|(DF).A.d(fa)|(gf).g.e(ce)|d4:|!
|:a2|(d’c’).b.a(fd)|(d’c’).d’.a(fd)|(gf).e.d(cd)|(ef).g.a(bc’)|\
(d’c’).d’.c'(af)|(d’c’).d’.c'(fd)|(gf).g.e(ce)|d4:|

